sites/all/themes/sedermera/graphics/overview.svg

<svg xmlns="http://www.w3.org/2000/svg" width="20" height="20" viewbox="0 0 20 20">
  <path fill="#B2B3B6" d="M10 0c-5.5 0-10 4.5-10 10s4.5 10 10 10 10-4.5 10-10-4.5-10-10-10zm0 18c-4.1 0-8-3.9-8-8s3.9-8 8-8 8 3.9 8 8-3.9 8-8 8zm-1.3-13c0 .7.6 1.2 1.2 1.2.7 0 1.2-.6 1.2-1.2s-.4-1.3-1.1-1.3c-.7 0-1.3.6-1.3 1.3zm3.8 1.2c0 .7.6 1.2 1.2 1.2.7 0 1.2-.6 1.2-1.2.1-.6-.5-1.2-1.2-1.2-.6 0-1.2.6-1.2 1.2zm-7.5 0c0 .7.6 1.2 1.2 1.2.7 0 1.2-.6 1.2-1.2.1-.6-.5-1.2-1.2-1.2-.6 0-1.2.6-1.2 1.2zm3.7 7.5v1.3h2.5v-1.2l-1.2-6.3-1.3 6.2z"/>
</svg>

<?xml version="1.0" encoding="utf-8"?>
<!-- Generator: Adobe Illustrator 18.0.0, SVG Export Plug-In . SVG Version: 6.00 Build 0)  -->
<!DOCTYPE svg PUBLIC "-//W3C//DTD SVG 1.1//EN" "http://www.w3.org/Graphics/SVG/1.1/DTD/svg11.dtd">
<svg version="1.1" id="Layer_1" xmlns="http://www.w3.org/2000/svg" xmlns:xlink="http://www.w3.org/1999/xlink" x="0px" y="0px"
	 width="20px" height="20px" viewBox="0 0 20 20" enable-background="new 0 0 20 20" xml:space="preserve">
<path fill="#B2B3B6" d="M10,0C4.5,0,0,4.5,0,10c0,5.5,4.5,10,10,10s10-4.5,10-10C20,4.5,15.5,0,10,0z M10,18c-4.1,0-8-3.9-8-8
	s3.9-8,8-8s8,3.9,8,8S14.1,18,10,18z M8.7,5c0,0.7,0.6,1.2,1.2,1.2c0.7,0,1.2-0.6,1.2-1.2S10.7,3.7,10,3.7C9.3,3.7,8.7,4.3,8.7,5z
	 M12.5,6.2c0,0.7,0.6,1.2,1.2,1.2c0.7,0,1.2-0.6,1.2-1.2C15,5.6,14.4,5,13.7,5C13.1,5,12.5,5.6,12.5,6.2z M5,6.2
	c0,0.7,0.6,1.2,1.2,1.2c0.7,0,1.2-0.6,1.2-1.2C7.5,5.6,6.9,5,6.2,5C5.6,5,5,5.6,5,6.2z M8.7,13.7V15h2.5v-1.2L10,7.5L8.7,13.7z"/>
</svg>
